pics/icons/16x16/actions/edit-clear.svg

<?xml version="1.0" encoding="UTF-8" standalone="no"?>
<!-- Created with Inkscape (http://www.inkscape.org/) -->
<svg
   xmlns:dc="http://purl.org/dc/elements/1.1/"
   xmlns:cc="http://creativecommons.org/ns#"
   xmlns:rdf="http://www.w3.org/1999/02/22-rdf-syntax-ns#"
   xmlns:svg="http://www.w3.org/2000/svg"
   xmlns="http://www.w3.org/2000/svg"
   xmlns:xlink="http://www.w3.org/1999/xlink"
   xmlns:sodipodi="http://sodipodi.sourceforge.net/DTD/sodipodi-0.dtd"
   xmlns:inkscape="http://www.inkscape.org/namespaces/inkscape"
   width="16"
   height="16"
   id="svg1306"
   sodipodi:version="0.32"
   inkscape:version="0.46"
   sodipodi:docbase="/home/jimmac/src/cvs/tango-icon-theme/16x16/actions"
   sodipodi:docname="edit-clear.svg"
   inkscape:export-filename="/home/jimmac/src/cvs/tango-icon-theme/16x16/actions/edit-clear.png"
   inkscape:export-xdpi="90.000000"
   inkscape:export-ydpi="90.000000"
   version="1.0"
   inkscape:output_extension="org.inkscape.output.svg.inkscape">
  <defs
     id="defs1308">
    <inkscape:perspective
       sodipodi:type="inkscape:persp3d"
       inkscape:vp_x="0 : 8 : 1"
       inkscape:vp_y="0 : 1000 : 0"
       inkscape:vp_z="16 : 8 : 1"
       inkscape:persp3d-origin="8 : 5.3333333 : 1"
       id="perspective75" />
    <linearGradient
       id="linearGradient9320">
      <stop
         id="stop9322"
         offset="0.0000000"
         style="stop-color:#fef088;stop-opacity:1.0000000;" />
      <stop
         style="stop-color:#fde63a;stop-opacity:1.0000000;"
         offset="0.50000000"
         id="stop9324" />
      <stop
         id="stop9326"
         offset="1.0000000"
         style="stop-color:#dac203;stop-opacity:1.0000000;" />
    </linearGradient>
    <linearGradient
       id="linearGradient8576">
      <stop
         style="stop-color:#dac203;stop-opacity:1.0000000;"
         offset="0.0000000"
         id="stop8578" />
      <stop
         id="stop8584"
         offset="0.50000000"
         style="stop-color:#fdec69;stop-opacity:1.0000000;" />
      <stop
         style="stop-color:#fdef7e;stop-opacity:1.0000000;"
         offset="1.0000000"
         id="stop8580" />
    </linearGradient>
    <linearGradient
       id="linearGradient3558">
      <stop
         style="stop-color:#000000;stop-opacity:1;"
         offset="0"
         id="stop3560" />
      <stop
         style="stop-color:#000000;stop-opacity:0;"
         offset="1"
         id="stop3562" />
    </linearGradient>
    <radialGradient
       inkscape:collect="always"
       xlink:href="#linearGradient3558"
       id="radialGradient3564"
       cx="22.571428"
       cy="30.857143"
       fx="22.571428"
       fy="30.857143"
       r="15.571428"
       gradientTransform="matrix(1.000000,0.000000,0.000000,0.651376,4.652743e-15,10.75754)"
       gradientUnits="userSpaceOnUse" />
    <linearGradient
       id="linearGradient15303">
      <stop
         style="stop-color:#6e0000;stop-opacity:1.0000000;"
         offset="0.0000000"
         id="stop15305" />
      <stop
         id="stop15311"
         offset="0.50000000"
         style="stop-color:#cd0000;stop-opacity:1.0000000;" />
      <stop
         style="stop-color:#a30000;stop-opacity:1.0000000;"
         offset="1.0000000"
         id="stop15307" />
    </linearGradient>
    <linearGradient
       id="linearGradient11647">
      <stop
         style="stop-color:#c17d10;stop-opacity:1;"
         offset="0"
         id="stop11649" />
      <stop
         style="stop-color:#9b650c;stop-opacity:1.0000000;"
         offset="1.0000000"
         id="stop11651" />
    </linearGradient>
    <linearGradient
       id="linearGradient8731">
      <stop
         style="stop-color:#9a8b09;stop-opacity:1.0000000;"
         offset="0.0000000"
         id="stop8733" />
      <stop
         id="stop8739"
         offset="0.50000000"
         style="stop-color:#e6cf0c;stop-opacity:1.0000000;" />
      <stop
         style="stop-color:#ccb80c;stop-opacity:1.0000000;"
         offset="1.0000000"
         id="stop8735" />
    </linearGradient>
    <linearGradient
       id="linearGradient6493">
      <stop
         style="stop-color:#ffea32;stop-opacity:1.0000000;"
         offset="0.0000000"
         id="stop6495" />
      <stop
         style="stop-color:#c8b300;stop-opacity:1.0000000;"
         offset="1.0000000"
         id="stop6497" />
    </linearGradient>
    <linearGradient
       inkscape:collect="always"
       id="linearGradient5739">
      <stop
         style="stop-color:#c4a000;stop-opacity:1;"
         offset="0"
         id="stop5741" />
      <stop
         style="stop-color:#c4a000;stop-opacity:0;"
         offset="1"
         id="stop5743" />
    </linearGradient>
    <linearGradient
       inkscape:collect="always"
       xlink:href="#linearGradient5739"
       id="linearGradient5745"
       x1="19.616243"
       y1="39.252983"
       x2="18.485983"
       y2="29.909071"
       gradientUnits="userSpaceOnUse"
       gradientTransform="matrix(1.000000,0.000000,0.000000,1.595923,-33.84011,-21.85433)" />
    <linearGradient
       inkscape:collect="always"
       xlink:href="#linearGradient5739"
       id="linearGradient5747"
       x1="9.1053896"
       y1="38.828144"
       x2="10.146956"
       y2="30.140831"
       gradientUnits="userSpaceOnUse"
       gradientTransform="matrix(1.000000,0.000000,0.000000,1.594982,-33.84011,-21.79382)" />
    <linearGradient
       inkscape:collect="always"
       xlink:href="#linearGradient5739"
       id="linearGradient5749"
       x1="14.045431"
       y1="37.57589"
       x2="14.045431"
       y2="29"
       gradientUnits="userSpaceOnUse"
       gradientTransform="matrix(1.000000,0.000000,0.000000,1.686958,-36.38554,-25.46790)" />
    <linearGradient
       inkscape:collect="always"
       xlink:href="#linearGradient5739"
       id="linearGradient5753"
       gradientUnits="userSpaceOnUse"
       gradientTransform="matrix(1.000000,0.000000,0.000000,1.602610,-30.38554,-22.01573)"
       x1="14.045431"
       y1="37.57589"
       x2="14.045431"
       y2="29" />
    <linearGradient
       inkscape:collect="always"
       xlink:href="#linearGradient5739"
       id="linearGradient5757"
       gradientUnits="userSpaceOnUse"
       gradientTransform="matrix(1.000000,0.000000,0.000000,1.722975,-33.38554,-26.94201)"
       x1="14.045431"
       y1="37.57589"
       x2="14.045431"
       y2="29" />
    <radialGradient
       inkscape:collect="always"
       xlink:href="#linearGradient6493"
       id="radialGradient6499"
       cx="13.721541"
       cy="30.478628"
       fx="13.721541"
       fy="30.478628"
       r="11.859151"
       gradientTransform="matrix(1.000000,-2.716245e-16,2.789432e-16,1.518248,-33.84011,-17.64375)"
       gradientUnits="userSpaceOnUse" />
    <linearGradient
       inkscape:collect="always"
       xlink:href="#linearGradient5739"
       id="linearGradient7988"
       gradientUnits="userSpaceOnUse"
       gradientTransform="matrix(0.866026,-0.500000,0.797491,1.381294,-15.69909,-9.225099)"
       x1="9.1053896"
       y1="38.828144"
       x2="10.146956"
       y2="30.140831" />
    <linearGradient
       inkscape:collect="always"
       xlink:href="#linearGradient5739"
       id="linearGradient7990"
       gradientUnits="userSpaceOnUse"
       gradientTransform="matrix(0.866026,-0.500000,0.797961,1.382110,-15.72934,-9.277499)"
       x1="19.616243"
       y1="39.252983"
       x2="18.485983"
       y2="29.909071" />
    <linearGradient
       inkscape:collect="always"
       xlink:href="#linearGradient5739"
       id="linearGradient7992"
       gradientUnits="userSpaceOnUse"
       gradientTransform="matrix(0.866026,-0.500000,0.843479,1.460948,-19.74053,-11.13423)"
       x1="14.045431"
       y1="37.57589"
       x2="14.045431"
       y2="29" />
    <linearGradient
       inkscape:collect="always"
       xlink:href="#linearGradient5739"
       id="linearGradient7994"
       gradientUnits="userSpaceOnUse"
       gradientTransform="matrix(0.866026,-0.500000,0.801305,1.387900,-12.81830,-11.14456)"
       x1="14.045431"
       y1="37.57589"
       x2="14.045431"
       y2="29" />
    <linearGradient
       inkscape:collect="always"
       xlink:href="#linearGradient5739"
       id="linearGradient7996"
       gradientUnits="userSpaceOnUse"
       gradientTransform="matrix(0.866026,-0.500000,0.861487,1.492140,-17.87951,-13.91085)"
       x1="14.045431"
       y1="37.57589"
       x2="14.045431"
       y2="29" />
    <linearGradient
       inkscape:collect="always"
       xlink:href="#linearGradient11647"
       id="linearGradient11653"
       x1="12.233433"
       y1="12.363223"
       x2="16.870909"
       y2="17.110941"
       gradientUnits="userSpaceOnUse"
       gradientTransform="matrix(0.965926,0.262102,-0.258819,0.978177,2.957072,-5.939741)" />
    <linearGradient
       inkscape:collect="always"
       xlink:href="#linearGradient15303"
       id="linearGradient15309"
       x1="1.2778143"
       y1="26.209198"
       x2="7.1866589"
       y2="26.156746"
       gradientUnits="userSpaceOnUse"
       gradientTransform="translate(-0.146321,0.341384)" />
    <linearGradient
       inkscape:collect="always"
       xlink:href="#linearGradient8576"
       id="linearGradient8582"
       x1="11.996646"
       y1="19.591736"
       x2="17.774033"
       y2="16.234594"
       gradientUnits="userSpaceOnUse"
       gradientTransform="matrix(1.014891,0.000000,0.000000,1.005920,-0.331699,-0.140188)" />
    <radialGradient
       inkscape:collect="always"
       xlink:href="#linearGradient9320"
       id="radialGradient9318"
       cx="20.764477"
       cy="19.540945"
       fx="20.764477"
       fy="19.540945"
       r="14.799585"
       gradientTransform="matrix(0.449398,-0.216492,0.564416,1.171617,-1.432288,2.546108)"
       gradientUnits="userSpaceOnUse" />
    <radialGradient
       inkscape:collect="always"
       xlink:href="#linearGradient3558"
       id="radialGradient2102"
       gradientUnits="userSpaceOnUse"
       gradientTransform="matrix(1.000000,0.000000,0.000000,0.651376,4.667488e-15,10.75754)"
       cx="22.571428"
       cy="30.857143"
       fx="22.571428"
       fy="30.857143"
       r="15.571428" />
    <radialGradient
       inkscape:collect="always"
       xlink:href="#linearGradient3558"
       id="radialGradient1647"
       gradientUnits="userSpaceOnUse"
       gradientTransform="matrix(1.000000,0.000000,0.000000,0.651376,-79.10841,-89.51184)"
       cx="22.571428"
       cy="30.857143"
       fx="22.571428"
       fy="30.857143"
       r="15.571428" />
    <radialGradient
       inkscape:collect="always"
       xlink:href="#linearGradient3558"
       id="radialGradient1649"
       gradientUnits="userSpaceOnUse"
       gradientTransform="matrix(1.000000,0.000000,0.000000,0.651376,-73.98865,-39.37715)"
       cx="22.571428"
       cy="30.857143"
       fx="22.571428"
       fy="30.857143"
       r="15.571428" />
    <linearGradient
       inkscape:collect="always"
       xlink:href="#linearGradient11647"
       id="linearGradient1651"
       gradientUnits="userSpaceOnUse"
       gradientTransform="matrix(0.965926,0.262102,-0.258819,0.978177,-78.32864,-30.65403)"
       x1="12.233433"
       y1="12.363223"
       x2="16.870909"
       y2="17.110941" />
    <radialGradient
       inkscape:collect="always"
       xlink:href="#linearGradient9320"
       id="radialGradient1653"
       gradientUnits="userSpaceOnUse"
       gradientTransform="matrix(0.449398,-0.216492,0.564416,1.171617,-82.71800,-22.16819)"
       cx="20.764477"
       cy="19.540945"
       fx="20.764477"
       fy="19.540945"
       r="14.799585" />
    <linearGradient
       inkscape:collect="always"
       xlink:href="#linearGradient5739"
       id="linearGradient1655"
       gradientUnits="userSpaceOnUse"
       gradientTransform="matrix(0.866026,-0.500000,0.797491,1.381294,-96.98480,-33.93939)"
       x1="9.1053896"
       y1="38.828144"
       x2="10.146956"
       y2="30.140831" />
    <linearGradient
       inkscape:collect="always"
       xlink:href="#linearGradient5739"
       id="linearGradient1657"
       gradientUnits="userSpaceOnUse"
       gradientTransform="matrix(0.866026,-0.500000,0.797961,1.382110,-97.01505,-33.99179)"
       x1="19.616243"
       y1="39.252983"
       x2="18.485983"
       y2="29.909071" />
    <linearGradient
       inkscape:collect="always"
       xlink:href="#linearGradient5739"
       id="linearGradient1659"
       gradientUnits="userSpaceOnUse"
       gradientTransform="matrix(0.866026,-0.500000,0.843479,1.460948,-101.0262,-35.84852)"
       x1="14.045431"
       y1="37.57589"
       x2="14.045431"
       y2="29" />
    <linearGradient
       inkscape:collect="always"
       xlink:href="#linearGradient5739"
       id="linearGradient1661"
       gradientUnits="userSpaceOnUse"
       gradientTransform="matrix(0.866026,-0.500000,0.801305,1.387900,-94.10401,-35.85885)"
       x1="14.045431"
       y1="37.57589"
       x2="14.045431"
       y2="29" />
    <linearGradient
       inkscape:collect="always"
       xlink:href="#linearGradient5739"
       id="linearGradient1663"
       gradientUnits="userSpaceOnUse"
       gradientTransform="matrix(0.866026,-0.500000,0.861487,1.492140,-99.16522,-38.62514)"
       x1="14.045431"
       y1="37.57589"
       x2="14.045431"
       y2="29" />
    <linearGradient
       inkscape:collect="always"
       xlink:href="#linearGradient8576"
       id="linearGradient1665"
       gradientUnits="userSpaceOnUse"
       gradientTransform="matrix(1.014891,0.000000,0.000000,1.005920,-81.61741,-24.85448)"
       x1="11.996646"
       y1="19.591736"
       x2="17.774033"
       y2="16.234594" />
    <linearGradient
       inkscape:collect="always"
       xlink:href="#linearGradient15303"
       id="linearGradient1667"
       gradientUnits="userSpaceOnUse"
       gradientTransform="translate(-58.18467,-61.70471)"
       x1="1.2778143"
       y1="26.209198"
       x2="7.1866589"
       y2="26.156746" />
    <radialGradient
       inkscape:collect="always"
       xlink:href="#linearGradient3558"
       id="radialGradient1669"
       gradientUnits="userSpaceOnUse"
       gradientTransform="matrix(1.974815,1.353552,-5.073216e-2,1.286348,-13.64459,148.6782)"
       cx="22.571428"
       cy="30.857143"
       fx="22.571428"
       fy="30.857143"
       r="15.571428" />
    <linearGradient
       inkscape:collect="always"
       xlink:href="#linearGradient5739"
       id="linearGradient1681"
       gradientUnits="userSpaceOnUse"
       gradientTransform="matrix(0.866027,-0.500000,0.843479,1.460950,-19.74053,-11.13425)"
       x1="14.511178"
       y1="25.910505"
       x2="13.053188"
       y2="20.999998" />
    <radialGradient
       inkscape:collect="always"
       xlink:href="#linearGradient3558"
       id="radialGradient2672"
       gradientUnits="userSpaceOnUse"
       gradientTransform="matrix(1.313265,-0.202448,-4.383226e-2,0.954813,20.25934,127.7453)"
       cx="5.6173954"
       cy="-36.604523"
       fx="5.6173954"
       fy="-36.604523"
       r="15.571428" />
    <linearGradient
       inkscape:collect="always"
       xlink:href="#linearGradient11647"
       id="linearGradient2674"
       gradientUnits="userSpaceOnUse"
       gradientTransform="matrix(0.965928,0.262104,-0.258820,0.978177,2.957085,-5.939743)"
       x1="12.233433"
       y1="12.363223"
       x2="16.870909"
       y2="17.110941" />
    <radialGradient
       inkscape:collect="always"
       xlink:href="#linearGradient9320"
       id="radialGradient2676"
       gradientUnits="userSpaceOnUse"
       gradientTransform="matrix(0.399586,-0.111358,6.425252e-2,0.230557,3.041305,8.839793)"
       cx="9.6904411"
       cy="1.4438884"
       fx="9.6904411"
       fy="1.4438884"
       r="14.799585" />
    <linearGradient
       inkscape:collect="always"
       xlink:href="#linearGradient5739"
       id="linearGradient2678"
       gradientUnits="userSpaceOnUse"
       gradientTransform="matrix(0.866027,-0.500001,0.797491,1.381297,-15.69908,-9.225113)"
       x1="9.0924263"
       y1="26.929855"
       x2="8.4244957"
       y2="20.054171" />
    <linearGradient
       inkscape:collect="always"
       xlink:href="#linearGradient5739"
       id="linearGradient2682"
       gradientUnits="userSpaceOnUse"
       gradientTransform="matrix(0.866027,-0.500001,0.801304,1.387904,-12.81830,-11.14457)"
       x1="13.054762"
       y1="27.414888"
       x2="9.8105831"
       y2="20.294987" />
  </defs>
  <sodipodi:namedview
     id="base"
     pagecolor="#ffffff"
     bordercolor="#868686"
     borderopacity="0.25490196"
     inkscape:pageopacity="0.0"
     inkscape:pageshadow="2"
     inkscape:zoom="1"
     inkscape:cx="54.005079"
     inkscape:cy="35.403377"
     inkscape:current-layer="layer1"
     showgrid="false"
     inkscape:grid-bbox="true"
     inkscape:document-units="px"
     inkscape:window-width="1035"
     inkscape:window-height="818"
     inkscape:window-x="0"
     inkscape:window-y="30"
     showguides="true"
     inkscape:guide-bbox="true"
     inkscape:showpageshadow="false" />
  <metadata
     id="metadata1311">
    <rdf:RDF>
      <cc:Work
         rdf:about="">
        <dc:format>image/svg+xml</dc:format>
        <dc:type
           rdf:resource="http://purl.org/dc/dcmitype/StillImage" />
        <dc:title>Edit Clear</dc:title>
        <dc:creator>
          <cc:Agent>
            <dc:title>Andreas Nilsson</dc:title>
          </cc:Agent>
        </dc:creator>
        <dc:contributor>
          <cc:Agent>
            <dc:title>Jakub Steiner (minimal)</dc:title>
          </cc:Agent>
        </dc:contributor>
        <cc:license
           rdf:resource="http://creativecommons.org/licenses/publicdomain/" />
      </cc:Work>
      <cc:License
         rdf:about="http://creativecommons.org/licenses/publicdomain/">
        <cc:permits
           rdf:resource="http://creativecommons.org/ns#Reproduction" />
        <cc:permits
           rdf:resource="http://creativecommons.org/ns#Distribution" />
        <cc:permits
           rdf:resource="http://creativecommons.org/ns#DerivativeWorks" />
      </cc:License>
    </rdf:RDF>
  </metadata>
  <g
     id="layer1"
     inkscape:label="Layer 1"
     inkscape:groupmode="layer">
    <path
       sodipodi:type="arc"
       style="opacity:0.47368421;color:#000000;fill:url(#radialGradient2672);fill-opacity:1;fill-rule:nonzero;stroke:none;stroke-width:1;stroke-linecap:round;stroke-linejoin:round;marker:none;marker-start:none;marker-mid:none;marker-end:none;stroke-miterlimit:4;stroke-dasharray:none;stroke-dashoffset:0;stroke-opacity:1;visibility:visible;display:inline;overflow:visible"
       id="path2642"
       sodipodi:cx="22.571428"
       sodipodi:cy="30.857143"
       sodipodi:rx="15.571428"
       sodipodi:ry="10.142858"
       d="M 38.142857 30.857143 A 15.571428 10.142858 0 1 1  7,30.857143 A 15.571428 10.142858 0 1 1  38.142857 30.857143 z"
       transform="matrix(0.423380,-3.539134e-2,3.123385e-2,9.658750e-2,-1.261803,12.80558)" />
    <path
       style="fill:url(#linearGradient2674);fill-opacity:1;fill-rule:evenodd;stroke:#784800;stroke-width:1.00632215;stroke-linecap:round;stroke-linejoin:miter;stroke-miterlimit:4;stroke-dashoffset:0;stroke-opacity:1"
       d="M 0.93609756,1.0329306 C 1.8960544,0.072973802 3.4411634,0.77519912 3.7671187,1.619517 L 5.1373751,4.2089285 C 5.577639,4.7103195 5.579194,5.303829 5.1609899,5.6237413 C 4.7427859,5.9436545 3.8869821,5.9960874 3.4467175,5.4946957 L 1.2811662,3.7299711 C 0.84090221,3.2285787 0.0020649077,1.9669633 0.93609756,1.0329306 z "
       id="path2644"
       sodipodi:nodetypes="cccsccz" />
    <path
       style="fill:url(#radialGradient2676);fill-opacity:1;fill-rule:evenodd;stroke:#9c8b00;stroke-width:1.00000143;stroke-linecap:butt;stroke-linejoin:miter;stroke-miterlimit:4;stroke-dasharray:none;stroke-opacity:1"
       d="M 4.2651997,8.3082625 C 3.5463952,8.7030779 4.6437923,12.949746 7.6818225,15.542884 C 7.9695521,15.893963 15.589605,13.240071 15.524012,8.613325 C 11.728617,7.8731922 8.7720587,4.4520845 6.8758794,6.0508678 L 6.6232897,3.043072 L 1.860114,7.0009078 L 4.2651997,8.3082625 z "
       id="path2648"
       sodipodi:nodetypes="ccccccc" />
    <path
       style="opacity:0.46153846;fill:none;fill-opacity:1;fill-rule:evenodd;stroke:#ffffff;stroke-width:1.00000083;stroke-linecap:butt;stroke-linejoin:miter;stroke-miterlimit:4;stroke-dasharray:none;stroke-opacity:1"
       d="M 5.1654666,7.8411193 C 4.8740569,8.0725661 4.7672804,11.368595 7.9262536,14.430189 C 10.952993,13.795817 14.20325,11.229444 14.425872,9.2857985 C 10.656338,8.3644323 8.7870344,5.3965351 5.8578786,7.0045237 L 5.7705071,5.0132316 L 3.6810946,6.83181 L 5.1654666,7.8411193 z "
       id="path2650"
       sodipodi:nodetypes="ccccccc" />
    <path
       style="fill:none;fill-opacity:0.75;fill-rule:evenodd;stroke:#a30000;stroke-width:1;stroke-linecap:round;stroke-linejoin:miter;stroke-opacity:1;stroke-miterlimit:4;stroke-dasharray:none"
       d="M 3.7142284,8.6270938 L 7.544369,5.4286573"
       id="path1414"
       sodipodi:nodetypes="cc" />
  </g>
</svg>

<svg xmlns="http://www.w3.org/2000/svg" xmlns:xlink="http://www.w3.org/1999/xlink" width="16" height="16" version="1.0"><defs><linearGradient id="g"><stop offset="0" stop-color="#fef088"/><stop offset=".5" stop-color="#fde63a"/><stop offset="1" stop-color="#dac203"/></linearGradient><linearGradient id="f"><stop offset="0" stop-color="#dac203"/><stop offset=".5" stop-color="#fdec69"/><stop offset="1" stop-color="#fdef7e"/></linearGradient><linearGradient id="a"><stop offset="0"/><stop offset="1" stop-opacity="0"/></linearGradient><linearGradient id="e"><stop offset="0" stop-color="#6e0000"/><stop offset=".5" stop-color="#cd0000"/><stop offset="1" stop-color="#a30000"/></linearGradient><linearGradient id="d"><stop offset="0" stop-color="#c17d10"/><stop offset="1" stop-color="#9b650c"/></linearGradient><linearGradient id="c"><stop offset="0" stop-color="#ffea32"/><stop offset="1" stop-color="#c8b300"/></linearGradient><linearGradient id="b"><stop offset="0" stop-color="#c4a000"/><stop offset="1" stop-color="#c4a000" stop-opacity="0"/></linearGradient><radialGradient xlink:href="#a" id="h" gradientUnits="userSpaceOnUse" gradientTransform="matrix(1.31326 -.20245 -.04383 .95481 20.26 127.745)" cx="5.617" cy="-36.605" fx="5.617" fy="-36.605" r="15.571"/><linearGradient xlink:href="#d" id="i" gradientUnits="userSpaceOnUse" gradientTransform="matrix(.96593 .2621 -.25882 .97818 2.957 -5.94)" x1="12.233" y1="12.363" x2="16.871" y2="17.111"/><radialGradient xlink:href="#g" id="j" gradientUnits="userSpaceOnUse" gradientTransform="matrix(.39959 -.11136 .06425 .23056 3.041 8.84)" cx="9.69" cy="1.444" fx="9.69" fy="1.444" r="14.8"/></defs><path style="marker:none" d="M38.143 30.857a15.571 10.143 0 1 1-31.143 0 15.571 10.143 0 1 1 31.143 0z" transform="matrix(.42338 -.0354 .03123 .09659 -1.262 12.806)" opacity=".474" color="#000" fill="url(#h)" overflow="visible"/><path d="M.936 1.033c.96-.96 2.505-.258 2.831.587l1.37 2.589c.44.501.442 1.095.024 1.415-.418.32-1.274.372-1.714-.13L1.28 3.73C.841 3.229.002 1.967.936 1.033z" fill="url(#i)" fill-rule="evenodd" stroke="#784800" stroke-width="1.006" stroke-linecap="round"/><path d="M4.265 8.308c-.719.395.379 4.642 3.417 7.235.288.351 7.908-2.303 7.842-6.93-3.795-.74-6.752-4.16-8.648-2.562l-.253-3.008L1.86 7.001l2.405 1.307z" fill="url(#j)" fill-rule="evenodd" stroke="#9c8b00"/><path d="M5.165 7.841c-.29.232-.398 3.528 2.761 6.59 3.027-.635 6.277-3.202 6.5-5.145-3.77-.922-5.639-3.89-8.568-2.281L5.77 5.013 3.68 6.832l1.484 1.01z" opacity=".462" fill="none" stroke="#fff"/><path d="M3.714 8.627l3.83-3.198" fill="none" stroke="#a30000" stroke-linecap="round"/></svg>
